X:1
T: Hornpipe
C:
R:Reel
Q: 232
K:D
M:4/4
L:1/16
|:d3B|AD3 D3E F3E F3G|AD3 D3D d6B2|AD3 D3E F3E F3G|A3B =c3A G4 d3B|
AD3 D3E F3E F3G|AD3 D3D d6B2|AD3 D3E F3E F3G|A3B =c3A G4 F3G|
Ad3 d3B A3G F3G|A3c d3e f4 F3G|Ad3 d3B A3G F3G|A3B =c3A G4 F3G|
Ad3 d3B A3G F3G|A3c d3e f4 e3f|g3e f3d e3c d3B|A3B =c3A G4:|
